X:1
T:Old Favorite, The
R:jig
M:6/8
L:1/8
K:G
B3 BAB | dBA G2B | ded d2B | ded B2A |
B3 BAB | dBA G2B | ded cBA | G3 G3 :|
|: :|

